; generated by Slic3r 1.1.7 on 2015-02-12 at 13:21:06
; perimeters extrusion width = 0.35mm
; infill extrusion width = 0.35mm
; solid infill extrusion width = 0.35mm
; top infill extrusion width = 0.35mm
; support material extrusion width = 0.35mm
G21 ; set units to millimeters
M107
M104 S190 ; set temperature
G28 ; home all axes
G1 Z5 F5000 ; lift nozzle
M109 S190 ; wait for temperature to be reached
G90 ; use absolute coordinates
G92 E0
M82 ; use absolute distances for extrusion
G1 F1800.000 E-1.00000
G92 E0
G1 Z0.350 F7800.000
G1 X19.795 Y72.678 F7800.000
G1 E1.00000 F1800.000
G1 X22.033 Y72.298 E1.20640 F1080.000
G1 X150.474 Y72.820 E12.88558
G1 X153.065 Y72.950 E13.12147 F1080.000
G1 X154.093 Y73.051 E13.21546
G1 X156.657 Y73.409 E13.45086
G1 X157.574 Y73.589 E13.53581
G1 X160.058 Y74.161 E13.76761
G1 X160.925 Y74.414 E13.84968
G1 X163.291 Y75.179 E14.07585
G1 X164.148 Y75.509 E14.15936
G1 X166.494 Y76.506 E14.39114
G1 X167.857 Y77.188 E14.52971
G1 X169.335 Y77.968 E14.68163
G1 X170.211 Y78.481 E14.77395
G1 X172.174 Y79.744 E14.98626
G1 X173.041 Y80.353 E15.08260
G1 X174.903 Y81.794 E15.29666
G1 X175.730 Y82.488 E15.39483
G1 X177.521 Y84.143 E15.61651
G1 X178.267 Y84.896 E15.71296
G1 X180.017 Y86.827 E15.94991
G1 X180.639 Y87.593 E16.03962
G1 X182.367 Y89.889 E16.30092
G1 X182.827 Y90.606 E16.37839
G1 X183.833 Y92.198 E16.54964
G1 X184.411 Y93.206 E16.65528
G1 X185.239 Y94.801 E16.81868
G1 X185.843 Y96.040 E16.94402
G1 X186.556 Y97.765 E17.11371
G1 X187.101 Y99.153 E17.24935
G1 X187.735 Y101.175 E17.44200
G1 X188.145 Y102.612 E17.57788
G1 X188.691 Y105.129 E17.81206
G1 X188.918 Y106.522 E17.94045
G1 X189.100 Y107.926 E18.06916
G1 X189.265 Y109.630 E18.22482
G1 X189.331 Y111.165 E18.36454
G1 X189.376 Y112.833 E18.51626
G1 X189.376 Y136.299 E20.65004
G1 X189.362 Y138.133 E20.81675
G1 X189.278 Y140.013 E20.98790
G1 X189.198 Y141.115 E21.08835
G1 X189.060 Y142.391 E21.20507
G1 X188.641 Y145.139 E21.45780
G1 X188.165 Y147.183 E21.64867
G1 X187.777 Y148.689 E21.79005
G1 X187.317 Y150.043 E21.92007
G1 X185.691 Y154.223 E22.32794
G1 X184.663 Y156.223 E22.53244
G1 X181.914 Y160.696 E23.00986
G1 X181.156 Y161.724 E23.12596
G1 X180.331 Y162.751 E23.24573
G1 X178.824 Y164.488 E23.45488
G1 X178.010 Y165.338 E23.56185
G1 X176.904 Y166.427 E23.70295
G1 X175.035 Y168.105 E23.93136
G1 X173.651 Y169.171 E24.09026
G1 X172.044 Y170.340 E24.27092
G1 X170.812 Y171.129 E24.40395
G1 X169.255 Y172.076 E24.56966
G1 X166.730 Y173.383 E24.82814
G1 X164.553 Y174.318 E25.04366
G1 X163.088 Y174.892 E25.18666
G1 X161.124 Y175.518 E25.37416
G1 X159.746 Y175.917 E25.50462
G1 X157.965 Y176.319 E25.67063
G1 X156.531 Y176.614 E25.80373
G1 X153.645 Y176.996 E26.06841
G1 X152.621 Y177.074 E26.16182
G1 X149.905 Y177.191 E26.40906
G1 X127.968 Y177.207 E28.40374
G1 X26.961 Y177.207 E37.58824
G1 X23.244 Y177.181 E37.92625
G1 X22.031 Y177.057 E38.03712
G1 X20.435 Y176.740 E38.18513
G1 X19.077 Y176.288 E38.31521
G1 X17.911 Y175.764 E38.43147
G1 X16.510 Y174.943 E38.57917
G1 X15.621 Y174.269 E38.68051
G1 X15.068 Y173.812 E38.74583
G1 X14.173 Y172.915 E38.86098
G1 X13.474 Y172.051 E38.96210
G1 X12.994 Y171.381 E39.03704
G1 X12.510 Y170.593 E39.12116
G1 X12.105 Y169.838 E39.19902
G1 X11.632 Y168.723 E39.30914
G1 X11.181 Y167.235 E39.45050
G1 X10.993 Y166.269 E39.54004
G1 X10.831 Y164.695 E39.68391
G1 X10.798 Y163.071 E39.83157
G1 X10.627 Y91.549 E46.33510
G1 X10.618 Y86.691 E46.77683
G1 X10.674 Y84.958 E46.93445
G1 X10.855 Y83.643 E47.05518
G1 X11.262 Y81.958 E47.21279
G1 X11.779 Y80.546 E47.34952
G1 X12.195 Y79.716 E47.43399
G1 X12.893 Y78.610 E47.55285
G1 X14.117 Y77.041 E47.73387
G1 X15.134 Y75.997 E47.86631
G1 X17.798 Y73.806 E48.17996
G1 X19.749 Y72.704 E48.38373
G1 F1800.000 E47.38373
G92 E0
G1 X22.006 Y78.923 F7800.000
G1 E1.00000 F1800.000
G1 X17.245 Y88.423 E1.54121 F1080.000
G1 X17.248 Y89.978 E1.62040
G1 X22.477 Y79.545 E2.21476
G1 X23.301 Y79.464 E2.25691
G1 X17.252 Y91.533 E2.94447
G1 X17.256 Y93.088 E3.02366
G1 X24.097 Y79.437 E3.80130
G1 X24.880 Y79.437 E3.84118
G1 X17.259 Y94.643 E4.70739
G1 X17.263 Y96.197 E4.78658
G1 X25.663 Y79.437 E5.74137
G1 X26.446 Y79.437 E5.78125
G1 X17.267 Y97.752 E6.82462
G1 X17.271 Y99.307 E6.90380
G1 X27.229 Y79.437 E8.03575
G1 X28.012 Y79.437 E8.07563
G1 X17.274 Y100.862 E9.29615
G1 X17.278 Y102.417 E9.37534
G1 X28.795 Y79.437 E10.68444
G1 X29.578 Y79.437 E10.72431
G1 X17.282 Y103.972 E12.12199
G1 X17.285 Y105.526 E12.20118
G1 X30.361 Y79.437 E13.68743
G1 X31.144 Y79.437 E13.72731
G1 X17.289 Y107.081 E15.30214
G1 X17.293 Y108.636 E15.38132
G1 X31.927 Y79.437 E17.04473
G1 X32.710 Y79.437 E17.08461
G1 X17.296 Y110.191 E18.83659
G1 X17.300 Y111.746 E18.91578
G1 X33.493 Y79.437 E20.75633
G1 X34.276 Y79.437 E20.79621
G1 X17.304 Y113.301 E22.72535
G1 X17.308 Y114.856 E22.80453
G1 X35.059 Y79.437 E24.82225
G1 X35.842 Y79.437 E24.86212
G1 X17.311 Y116.410 E26.96841
G1 X17.315 Y117.965 E27.04760
G1 X36.625 Y79.437 E29.24246
G1 X37.408 Y79.437 E29.28234
G1 X17.319 Y119.520 E31.56578
G1 X17.322 Y121.075 E31.64497
G1 X38.191 Y79.437 E34.01699
G1 X38.974 Y79.437 E34.05687
G1 X17.326 Y122.630 E36.51746
G1 X17.330 Y124.185 E36.59665
G1 X39.757 Y79.437 E39.14582
G1 X40.540 Y79.437 E39.18570
G1 X17.334 Y125.739 E41.82345
G1 X17.337 Y127.294 E41.90263
G1 X41.323 Y79.437 E44.62896
G1 X42.106 Y79.437 E44.66884
G1 X17.341 Y128.849 E47.48374
G1 X17.345 Y130.404 E47.56293
G1 X42.889 Y79.437 E50.46640
G1 X43.672 Y79.437 E50.50628
G1 X17.348 Y131.959 E53.49834
G1 X17.352 Y133.514 E53.57752
G1 X44.455 Y79.437 E56.65815
G1 X45.238 Y79.437 E56.69803
G1 X17.356 Y135.068 E59.86724
G1 X17.360 Y136.623 E59.94643
G1 X46.021 Y79.437 E63.20421
G1 X46.804 Y79.437 E63.24409
G1 X17.363 Y138.178 E66.59045
G1 X17.367 Y139.733 E66.66964
G1 X47.587 Y79.437 E70.10458
G1 X48.370 Y79.437 E70.14445
G1 X17.371 Y141.288 E73.66797
G1 X17.374 Y142.843 E73.74716
G1 X49.153 Y79.437 E77.35925
G1 X49.936 Y79.437 E77.39912
G1 X17.378 Y144.397 E81.09979
G1 X17.382 Y145.952 E81.17898
G1 X50.719 Y79.437 E84.96822
G1 X51.502 Y79.437 E85.00810
G1 X17.386 Y147.507 E88.88592
G1 X17.389 Y149.062 E88.96511
G1 X52.285 Y79.437 E92.93151
G1 X53.068 Y79.437 E92.97138
G1 X17.393 Y150.617 E97.02636
G1 X17.397 Y152.172 E97.10555
G1 X53.851 Y79.437 E101.24910
G1 X54.634 Y79.437 E101.28897
G1 X17.400 Y153.726 E105.52110
G1 X17.404 Y155.281 E105.60029
G1 X55.417 Y79.437 E109.92099
G1 X56.200 Y79.437 E109.96087
G1 X17.408 Y156.836 E114.37015
G1 X17.411 Y158.391 E114.44934
G1 X56.983 Y79.437 E118.94719
G1 X57.766 Y79.437 E118.98707
G1 X17.415 Y159.946 E123.57351
G1 X17.419 Y161.501 E123.65269
G1 X58.549 Y79.437 E128.32770
G1 X59.332 Y79.437 E128.36758
G1 X17.423 Y163.055 E133.13117
G1 X17.454 Y164.554 E133.20752
G1 X60.115 Y79.437 E138.05649
G1 X60.898 Y79.437 E138.09636
G1 X17.637 Y165.752 E143.01355
G1 X17.942 Y166.706 E143.06455
G1 X61.681 Y79.437 E148.03608
G1 X62.464 Y79.437 E148.07596
G1 X18.347 Y167.460 E153.09046
G1 X18.802 Y168.114 E153.13105
G1 X63.247 Y79.437 E158.18283
G1 X64.030 Y79.437 E158.22271
G1 X19.289 Y168.706 E163.30817
G1 X19.842 Y169.163 E163.34476
G1 X64.813 Y79.437 E168.45629
G1 X65.596 Y79.437 E168.49617
G1 X20.412 Y169.589 E173.63196
G1 X21.030 Y169.919 E173.66762
G1 X66.379 Y79.437 E178.82219
G1 X67.162 Y79.437 E178.86207
G1 X21.675 Y170.194 E184.03230
G1 X22.355 Y170.399 E184.06848
G1 X67.942 Y79.445 E189.25003
G1 X68.713 Y79.467 E189.28936
G1 X23.080 Y170.516 E194.47626
G1 X23.829 Y170.582 E194.51460
G1 X69.485 Y79.489 E199.70403
G1 X70.257 Y79.511 E199.74335
G1 X24.612 Y170.582 E204.93152
G1 X25.395 Y170.582 E204.97140
G1 X71.009 Y79.574 E210.15596
G1 X71.759 Y79.639 E210.19433
G1 X26.178 Y170.582 E215.37520
G1 X26.961 Y170.582 E215.41508
G1 X72.510 Y79.704 E220.59226
G1 X73.250 Y79.789 E220.63022
G1 X27.744 Y170.582 E225.80256
G1 X28.527 Y170.582 E225.84244
G1 X73.980 Y79.894 E231.00878
G1 X74.710 Y80.000 E231.04635
G1 X29.310 Y170.582 E236.20667
G1 X30.093 Y170.582 E236.24655
G1 X75.440 Y80.105 E241.40086
G1 X76.152 Y80.248 E241.43782
G1 X30.876 Y170.582 E246.58401
G1 X31.659 Y170.582 E246.62388
G1 X76.862 Y80.393 E251.76183
G1 X77.573 Y80.538 E251.79875
G1 X32.442 Y170.582 E256.92845
G1 X33.225 Y170.582 E256.96833
G1 X78.407 Y80.435 E262.10388
G1 X79.279 Y80.257 E262.14921
G1 X34.008 Y170.582 E267.29490
G1 X34.791 Y170.582 E267.33478
G1 X80.147 Y80.089 E272.49005
G1 X80.991 Y79.966 E272.53349
G1 X35.574 Y170.582 E277.69573
G1 X36.357 Y170.582 E277.73560
G1 X81.835 Y79.844 E282.90480
G1 X82.677 Y79.727 E282.94807
G1 X37.140 Y170.582 E288.12392
G1 X37.923 Y170.582 E288.16380
G1 X83.495 Y79.657 E293.34369
G1 X84.314 Y79.586 E293.38553
G1 X38.706 Y170.582 E298.56944
G1 X39.489 Y170.582 E298.60932
G1 X85.132 Y79.515 E303.79727
G1 X85.929 Y79.488 E303.83786
G1 X40.272 Y170.582 E309.02734
G1 X41.055 Y170.582 E309.06722
G1 X86.723 Y79.465 E314.25800
G1 X87.518 Y79.442 E314.29848
G1 X41.838 Y170.582 E319.49057
G1 X42.621 Y170.582 E319.53045
G1 X88.305 Y79.434 E324.72300
G1 X89.088 Y79.434 E324.76288
G1 X43.404 Y170.582 E329.95543
G1 X44.187 Y170.582 E329.99531
G1 X89.871 Y79.434 E335.18786
G1 X90.654 Y79.434 E335.22774
G1 X44.970 Y170.582 E340.42029
G1 X45.753 Y170.582 E340.46017
G1 X91.437 Y79.434 E345.65272
G1 X92.220 Y79.434 E345.69260
G1 X46.536 Y170.582 E350.88515
G1 X47.319 Y170.582 E350.92503
G1 X93.003 Y79.434 E356.11759
G1 X93.786 Y79.434 E356.15746
G1 X48.102 Y170.582 E361.35002
G1 X48.885 Y170.582 E361.38990
G1 X94.569 Y79.434 E366.58245
G1 X95.352 Y79.434 E366.62233
G1 X49.668 Y170.582 E371.81488
G1 X50.451 Y170.582 E371.85476
G1 X96.135 Y79.434 E377.04731
G1 X96.918 Y79.434 E377.08719
G1 X51.234 Y170.582 E382.27974
G1 X52.017 Y170.582 E382.31962
G1 X97.701 Y79.434 E387.51217
G1 X98.484 Y79.434 E387.55205
G1 X52.800 Y170.582 E392.74461
G1 X53.583 Y170.582 E392.78448
G1 X99.267 Y79.434 E397.97704
G1 X100.050 Y79.434 E398.01691
G1 X54.366 Y170.582 E403.20947
G1 X55.149 Y170.582 E403.24935
G1 X100.833 Y79.434 E408.44190
G1 X101.616 Y79.434 E408.48178
G1 X55.932 Y170.582 E413.67433
G1 X56.715 Y170.582 E413.71421
G1 X102.399 Y79.434 E418.90676
G1 X103.182 Y79.434 E418.94664
G1 X57.498 Y170.582 E424.13919
G1 X58.281 Y170.582 E424.17907
G1 X103.965 Y79.434 E429.37163
G1 X104.748 Y79.434 E429.41150
G1 X59.064 Y170.582 E434.60406
G1 X59.847 Y170.582 E434.64393
G1 X105.531 Y79.434 E439.83649
G1 X106.314 Y79.434 E439.87637
G1 X60.630 Y170.582 E445.06892
G1 X61.413 Y170.582 E445.10880
G1 X107.097 Y79.434 E450.30135
G1 X107.880 Y79.434 E450.34123
G1 X62.196 Y170.582 E455.53378
G1 X62.979 Y170.582 E455.57366
G1 X108.663 Y79.434 E460.76622
G1 X109.446 Y79.434 E460.80609
G1 X63.762 Y170.582 E465.99865
G1 X64.545 Y170.582 E466.03852
G1 X110.229 Y79.434 E471.23108
G1 X111.012 Y79.434 E471.27096
G1 X65.328 Y170.582 E476.46351
G1 X66.111 Y170.582 E476.50339
G1 X111.795 Y79.434 E481.69594
G1 X112.578 Y79.434 E481.73582
G1 X66.894 Y170.582 E486.92837
G1 X67.677 Y170.582 E486.96825
G1 X113.361 Y79.434 E492.16081
G1 X114.144 Y79.434 E492.20068
G1 X68.471 Y170.560 E497.39196
G1 X69.266 Y170.537 E497.43243
G1 X114.927 Y79.434 E502.62241
G1 X115.710 Y79.434 E502.66229
G1 X70.060 Y170.514 E507.85096
G1 X70.872 Y170.457 E507.89239
G1 X116.493 Y79.434 E513.07782
G1 X117.276 Y79.434 E513.11770
G1 X71.690 Y170.386 E518.29910
G1 X72.509 Y170.316 E518.34094
G1 X118.059 Y79.434 E523.51831
G1 X118.842 Y79.434 E523.55819
G1 X73.341 Y170.218 E528.72999
G1 X74.185 Y170.096 E528.77343
G1 X119.625 Y79.434 E533.93828
G1 X120.408 Y79.434 E533.97816
G1 X75.029 Y169.974 E539.13605
G1 X75.886 Y169.826 E539.18034
G1 X121.191 Y79.434 E544.32983
G1 X121.974 Y79.434 E544.36971
G1 X76.758 Y169.648 E549.50907
G1 X77.630 Y169.471 E549.55440
G1 X122.757 Y79.434 E554.68364
G1 X123.540 Y79.434 E554.72351
G1 X78.362 Y169.572 E559.85855
G1 X79.073 Y169.717 E559.89547
G1 X124.323 Y79.434 E565.03876
G1 X125.106 Y79.434 E565.07863
G1 X79.783 Y169.862 E570.23017
G1 X80.507 Y169.980 E570.26752
G1 X125.889 Y79.434 E575.42577
G1 X126.672 Y79.434 E575.46565
G1 X81.237 Y170.085 E580.62991
G1 X81.967 Y170.191 E580.66748
G1 X127.455 Y79.434 E585.83776
G1 X128.233 Y79.443 E585.87740
G1 X82.700 Y170.291 E591.05285
G1 X83.450 Y170.356 E591.09121
G1 X128.992 Y79.491 E596.26767
G1 X129.725 Y79.592 E596.30531
G1 X84.201 Y170.421 E601.47967
G1 X84.951 Y170.486 E601.51803
G1 X130.430 Y79.746 E606.68731
G1 X131.103 Y79.967 E606.72335
G1 X85.716 Y170.522 E611.88212
G1 X86.488 Y170.544 E611.92145
G1 X131.750 Y80.238 E617.06605
G1 X132.370 Y80.563 E617.10170
G1 X87.260 Y170.567 E622.22908
G1 X88.035 Y170.582 E622.26856
G1 X132.954 Y80.961 E627.37416
G1 X133.518 Y81.396 E627.41048
G1 X88.818 Y170.582 E632.49125
G1 X89.601 Y170.582 E632.53113
G1 X134.024 Y81.949 E637.58043
G1 X134.508 Y82.546 E637.61957
G1 X90.384 Y170.582 E642.63485
G1 X91.167 Y170.582 E642.67473
G1 X135.097 Y82.933 E647.66795
G1 X136.145 Y82.405 E647.72772
G1 X91.950 Y170.582 E652.75104
G1 X92.733 Y170.582 E652.79092
G1 X137.130 Y82.002 E657.83719
G1 X138.114 Y81.600 E657.89133
G1 X93.516 Y170.582 E662.96048
G1 X94.299 Y170.582 E663.00036
G1 X139.076 Y81.243 E668.08985
G1 X140.003 Y80.956 E668.13927
G1 X95.082 Y170.582 E673.24512
G1 X95.865 Y170.582 E673.28500
G1 X140.930 Y80.669 E678.40720
G1 X141.836 Y80.424 E678.45499
G1 X96.648 Y170.582 E683.59114
G1 X97.431 Y170.582 E683.63102
G1 X142.714 Y80.234 E688.77801
G1 X143.592 Y80.044 E688.82378
G1 X98.214 Y170.582 E693.98161
G1 X98.997 Y170.582 E694.02149
G1 X144.460 Y79.875 E699.18895
G1 X145.296 Y79.768 E699.23190
G1 X99.780 Y170.582 E704.40543
G1 X100.563 Y170.582 E704.44531
G1 X146.133 Y79.662 E709.62489
G1 X146.969 Y79.556 E709.66781
G1 X101.346 Y170.582 E714.85344
G1 X102.129 Y170.582 E714.89332
G1 X147.773 Y79.513 E720.08138
G1 X148.572 Y79.482 E720.12209
G1 X102.912 Y170.582 E725.31194
G1 X103.695 Y170.582 E725.35182
G1 X149.371 Y79.450 E730.54345
G1 X150.160 Y79.437 E730.58367
G1 X104.478 Y170.582 E735.77606
G1 X105.261 Y170.582 E735.81594
G1 X150.925 Y79.473 E741.00626
G1 X151.690 Y79.510 E741.04525
G1 X106.044 Y170.582 E746.23348
G1 X106.827 Y170.582 E746.27336
G1 X152.454 Y79.547 E751.45952
G1 X153.203 Y79.616 E751.49779
G1 X107.610 Y170.582 E756.68000
G1 X108.393 Y170.582 E756.71988
G1 X153.936 Y79.715 E761.89642
G1 X154.669 Y79.815 E761.93410
G1 X109.176 Y170.582 E767.10498
G1 X109.959 Y170.582 E767.14485
G1 X155.402 Y79.914 E772.31006
G1 X156.116 Y80.052 E772.34710
G1 X110.742 Y170.582 E777.50446
G1 X111.525 Y170.582 E777.54434
G1 X156.820 Y80.211 E782.69266
G1 X157.523 Y80.369 E782.72939
G1 X112.308 Y170.582 E787.86867
G1 X113.091 Y170.582 E787.90855
G1 X158.226 Y80.528 E793.03879
G1 X158.911 Y80.725 E793.07506
G1 X113.874 Y170.582 E798.19408
G1 X114.657 Y170.582 E798.23396
G1 X159.586 Y80.940 E803.34071
G1 X160.261 Y81.156 E803.37680
G1 X115.440 Y170.582 E808.47128
G1 X116.223 Y170.582 E808.51116
G1 X160.936 Y81.371 E813.59337
G1 X161.593 Y81.621 E813.62921
G1 X117.006 Y170.582 E818.69717
G1 X117.789 Y170.582 E818.73704
G1 X162.241 Y81.892 E823.78959
G1 X162.888 Y82.162 E823.82532
G1 X118.572 Y170.582 E828.86245
G1 X119.355 Y170.582 E828.90233
G1 X163.536 Y82.433 E833.92404
G1 X164.162 Y82.746 E833.95969
G1 X120.138 Y170.582 E838.96359
G1 X120.921 Y170.582 E839.00347
G1 X164.788 Y83.059 E843.98950
G1 X165.408 Y83.384 E844.02516
G1 X121.704 Y170.582 E848.99272
G1 X122.487 Y170.582 E849.03259
G1 X166.028 Y83.709 E853.98163
G1 X166.636 Y84.059 E854.01734
G1 X123.270 Y170.582 E858.94644
G1 X124.053 Y170.582 E858.98631
G1 X167.228 Y84.439 E863.89377
G1 X167.821 Y84.818 E863.92962
G1 X124.836 Y170.582 E868.81544
G1 X125.619 Y170.582 E868.85532
G1 X168.414 Y85.198 E873.71950
G1 X168.996 Y85.600 E873.75550
G1 X126.402 Y170.582 E878.59682
G1 X127.185 Y170.582 E878.63670
G1 X169.560 Y86.035 E883.45322
G1 X170.125 Y86.471 E883.48954
G1 X127.968 Y170.582 E888.28124
G1 X128.773 Y170.539 E888.32227
G1 X170.690 Y86.906 E893.08671
G1 X171.244 Y87.363 E893.12328
G1 X129.601 Y170.448 E897.85650
G1 X130.480 Y170.257 E897.90229
G1 X171.780 Y87.856 E902.59656
G1 X172.315 Y88.349 E902.63365
G1 X131.422 Y169.939 E907.28170
G1 X132.477 Y169.397 E907.34211
G1 X172.851 Y88.842 E911.93116
